plugins/kotlin/frontend-independent/resources/org/jetbrains/kotlin/idea/icons/kotlin_gradle_script.svg

<svg xmlns="http://www.w3.org/2000/svg" width="16" height="16" viewBox="0 0 16 16">
  <defs>
    <linearGradient id="kotlin_gradle_script-a" x1="-16.836%" x2="76.219%" y1="91.94%" y2="-1.116%">
      <stop offset="10.75%" stop-color="#C757BC"/>
      <stop offset="21.38%" stop-color="#D0609A"/>
      <stop offset="42.54%" stop-color="#E1725C"/>
      <stop offset="60.48%" stop-color="#EE7E2F"/>
      <stop offset="74.3%" stop-color="#F58613"/>
      <stop offset="82.32%" stop-color="#F88909"/>
    </linearGradient>
  </defs>
  <g fill="none" fill-rule="evenodd">
    <g transform="translate(9 9)">
      <polygon fill="#0EAEFF" fill-rule="nonzero" points="0 7 3.512 3.488 7 7"/>
      <polygon fill="#0EAEFF" fill-rule="nonzero" points="0 0 3.512 0 0 3.792"/>
      <polygon fill="url(#kotlin_gradle_script-a)" fill-rule="nonzero" points="3.512 0 0 3.698 0 7 3.512 3.488 7 0"/>
    </g>
    <path fill="#9AA7B0" fill-opacity=".8" d="M8,11.8835562 C7.34792619,11.9938828 6.82763219,12.5177842 6.73846154,13.1928571 C6.72441543,13.304366 6.62996984,13.3882394 6.51758242,13.389011 L5.50549451,13.389011 C5.39282778,13.3889705 5.29796847,13.3047298 5.28461538,13.1928571 C5.18401571,12.43126 4.53469609,11.8620691 3.76648352,11.8620691 C2.99827094,11.8620691 2.34895132,12.43126 2.24835165,13.1928571 C2.23794367,13.3108071 2.13759924,13.400323 2.01923077,13.3972527 L0.984065934,13.3972527 C0.87657333,13.3967131 0.784593729,13.3199481 0.764835165,13.2142857 C0.181318681,10.1747253 1.25934066,7.77472527 3.01483516,6.52527473 L3.93296703,8.10934066 C4.15349312,8.48926563 4.56016448,8.7224574 4.99945055,8.72087912 C5.2078359,8.72133735 5.41280716,8.66796533 5.59450549,8.56593407 L6.02472527,8.32527473 L6.03956044,8.32527473 C6.54724302,8.00930666 7.02602633,7.64911599 7.47032967,7.2489011 C7.5160865,7.20559883 7.54117571,7.14481875 7.53928662,7.08184887 C7.53739752,7.018879 7.5087099,6.95971222 7.46043956,6.91923077 C7.36925385,6.84623809 7.23851675,6.85043286 7.1521978,6.92912088 C6.73006329,7.30380047 6.27677592,7.64183594 5.79725275,7.93956044 L5.37197802,8.17692308 L5.39010989,8.16373626 L5.36703297,8.17692308 C5.00127872,8.38296898 4.53780584,8.25569786 4.32857143,7.89175824 L3.35769231,6.21538462 C3.24953676,6.03055516 3.22363551,5.80890759 3.28626138,5.604121 C3.34888725,5.3993344 3.49432879,5.23008524 3.68736264,5.13736264 C9.34450549,2.44065934 11.8368132,7.67252747 13.7043956,5.80659341 C14.2302016,5.31030007 14.2709593,4.48760862 13.7967823,3.94177424 C13.3226052,3.39593986 12.5022959,3.32127425 11.9373626,3.77252747 C11.8482945,3.83996474 11.7231667,3.83152916 11.643956,3.75274725 L11.3604396,3.46263736 C11.3152865,3.4196968 11.2897252,3.36011347 11.2897252,3.2978022 C11.2897252,3.23549093 11.3152865,3.1759076 11.3604396,3.13296703 C12.2870627,2.26771896 13.7327043,2.29250555 14.6291209,3.18901099 C15.3644528,3.92434286 16.1838656,5.75506282 14.1739533,8 L8,8 L8,11.8835562 Z M10.7802198,7.4532967 L10.7802198,7.45494505 C10.9512714,7.32835109 11.0107505,7.09952965 10.9229983,6.90566309 C10.8352462,6.71179653 10.6240715,6.60548435 10.4160772,6.65046251 C10.2080828,6.69544067 10.0597014,6.8795058 10.0598901,7.09230769 L10.7802198,7.4532967 Z"/>
  </g>
</svg>

<?xml version="1.0" encoding="utf-8"?>
<!-- Generator: Adobe Illustrator 24.1.2, SVG Export Plug-In . SVG Version: 6.00 Build 0)  -->
<svg version="1.2" baseProfile="tiny" id="Layer_1" xmlns="http://www.w3.org/2000/svg" xmlns:xlink="http://www.w3.org/1999/xlink"
	 x="0px" y="0px" viewBox="0 0 16 16" overflow="visible" xml:space="preserve">
<g>
	<path fill-rule="evenodd" fill="#9AA7B0" fill-opacity="0.8" d="M8,11.8999996C7.3000002,12,6.8000002,12.5,6.6999998,13.1999998
		c0,0.1000004-0.0999999,0.1999998-0.1999998,0.1999998h-1c-0.0999999,0-0.1999998-0.1000004-0.1999998-0.1999998
		c-0.0999999-0.8000002-0.6999998-1.3000002-1.5-1.3000002s-1.4000001,0.6000004-1.5,1.3000002
		c0,0.1000004-0.0999999,0.1999998-0.2,0.1999998H1c-0.1,0-0.2-0.1000004-0.2-0.1999998C0.2,10.1999998,1.3,7.7999997,3,6.5
		l0.9000001,1.6000004C4.1999998,8.5,4.5999999,8.6999998,5,8.6999998c0.1999998,0,0.4000001-0.1000004,0.5999999-0.1999998
		L6,8.3000002l0,0C6.5,8,7,7.5999999,7.5,7.1999998c0,0,0.0999999-0.0999999,0.0999999-0.1999998s0-0.0999999-0.0999999-0.1999998
		s-0.1999998-0.0999999-0.3000002,0c-0.4000001,0.4000001-0.9000001,0.6999998-1.4000001,1L5.4000001,8.1999998l0,0l0,0
		C5,8.3999996,4.5,8.3000002,4.3000002,7.9000001l-1-1.7000003C3.2,6,3.2,5.8000002,3.3,5.5999999
		c0.0999999-0.1999998,0.2-0.4000001,0.4000001-0.5c5.6999998-2.7,8.1000004,2.5,10,0.6999998
		c0.5-0.5,0.6000004-1.2999997,0.1000004-1.9000001c-0.5-0.5-1.3000002-0.5999999-1.8999996-0.2
		c-0.1000004,0.0999999-0.1999998,0.0999999-0.3000002,0l-0.3000002-0.3c0,0-0.1000004-0.0999999-0.1000004-0.2
		s0-0.0999999,0.1000004-0.2c0.8999996-0.9000001,2.4000006-0.8,3.3000002,0.0999999
		c0.6999998,0.7,1.6000004,2.5999999-0.5,4.8000002H8V11.8999996z M10.8000002,7.5L10.8000002,7.5
		C11,7.3000002,11,7.0999999,10.8999996,6.9000001s-0.3000002-0.3000002-0.5-0.3000002S10,6.7999997,10,7L10.8000002,7.5z"/>
</g>
<polygon fill="#7F52FF" points="16,16 9,16 9,9 16,9 12.5,12.5 "/>
</svg>
